X: 196
T: Laurel Street
I: Laurel StreetR-105G/Dpolka
C: R-105
C: Paul Milde  1995
M: C|
Z: Transcribed to abc by Mary Lou Knack
R: polka
Q: 1/2=100
K: G
"G"B4 c2B2| "D"A4 B4| "G"G4 B4| d4 g4| "C"e6f2| g4 e4| "D"a4 g4| f4 e4|
"G"d4 e2d2| B4 e4| "G"d4 B4| A4 G4| "D"A4 B2c2| B4 A4| "G"G4 "D"F4| "G"G8 |
"G"B4 c2B2| "D"A4 B4| "G"G4 B4| d4 g4| "C"e6f2| g4 e4| "D"a4 g4| f4 e4|
"G"d4 e2d2| B4 e4| "G"d4 G4| A4 B4| "C"c4 d2c2| B4 A4| "G"G4 "D"F4| "G"G4 z4 "Fine"x|] [K:D]\
\
"D"A6 B2| A4 G4| F4 A4| d4 A4| "G"B6 A2| G4 F4| E4 D4| E4 F4|
"D"A6 B2| A4 G4| F4 A4| d4 f4| "A7"e6 f2| g4 c4| "D"e4 d4| d8|
"D"A6 B2| A4 G4| F4 A4| d4 A4| "G"B6 A2| G4 F4| E4 D4| "A7"C4 E4|
"D"D6 E2| F4 D4| F4 A4| d4 f4| "A7"e6 f2| g4 c4| "D"e4 d4| d4 =c4 "DC al Fine"x|]
%%text 9/1/98.  Polka
